usr/share/icons/biglinux-icons-material/scalable/apps/com.jgraph.drawio.desktop.svg

<svg width="24" height="24" viewBox="0 0 24 24" fill="none" xmlns="http://www.w3.org/2000/svg">
<path d="M22.4419 10.1194L22.4421 10.1224C22.5469 11.7371 22.5095 13.3481 22.3298 14.9557C22.1987 16.0561 21.9143 17.1137 21.4764 18.1297C20.6823 19.8465 19.4081 21.0213 17.6316 21.6747C16.1378 22.1787 14.6025 22.444 13.0241 22.4707L13.0153 22.4709L13.0066 22.4713C11.2145 22.5645 9.4409 22.4306 7.68475 22.0695C6.10572 21.7172 4.85811 21.0668 3.91566 20.1354C2.97306 19.2038 2.30868 17.9643 1.93909 16.3906C1.61968 14.9448 1.47492 13.4818 1.50473 12.0007L1.50495 11.99L1.50471 11.9793C1.46907 10.4061 1.63584 8.85572 2.00512 7.3271C2.3918 5.85946 3.04371 4.69618 3.94721 3.81423C4.85171 2.93131 6.03248 2.3068 7.51234 1.95496L7.51234 1.95497L7.51543 1.95422C8.20669 1.78522 8.90663 1.67171 9.61549 1.61365C9.7532 1.61322 9.88899 1.5969 10.0217 1.56353C11.4178 1.47429 12.8137 1.47906 14.2097 1.57787C15.461 1.67553 16.6715 1.94663 17.8428 2.39142C19.7336 3.17163 21.0156 4.51006 21.7136 6.43251C22.1249 7.62784 22.3676 8.85638 22.4419 10.1194Z" fill="url(#paint0_radial_3_403)" stroke="url(#paint1_linear_3_403)"/>
<path opacity="0.35" d="M9.7428 8.71053L7.3976 12.7895H8.7476L11.078 8.73051H12.9356L15.28 12.7895H16.6244L14.2712 8.71053H9.7428Z" fill="white"/>
<path d="M9.6 3C9.1568 3 8.8 3.36384 8.8 3.81579V7.89474C8.8 8.34668 9.1568 8.71053 9.6 8.71053H14.4C14.8432 8.71053 15.2 8.34668 15.2 7.89474V3.81579C15.2 3.36384 14.8432 3 14.4 3H9.6ZM9.6 3.81579H14.4V7.89474H9.6V3.81579Z" fill="white"/>
<path opacity="0.5" d="M14.4 3.81579H9.6V7.89474H14.4V3.81579Z" fill="white"/>
<path d="M4.8 12.7895C4.3568 12.7895 4 13.1533 4 13.6053V17.6842C4 18.1362 4.3568 18.5 4.8 18.5H9.6C10.0432 18.5 10.4 18.1362 10.4 17.6842V13.6053C10.4 13.1533 10.0432 12.7895 9.6 12.7895H4.8ZM4.8 13.6053H9.6V17.6842H4.8V13.6053ZM14.4 12.7895C13.9568 12.7895 13.6 13.1533 13.6 13.6053V17.6842C13.6 18.1362 13.9568 18.5 14.4 18.5H19.2C19.6432 18.5 20 18.1362 20 17.6842V13.6053C20 13.1533 19.6432 12.7895 19.2 12.7895H14.4ZM14.4 13.6053H19.2V17.6842H14.4V13.6053Z" fill="white"/>
<path opacity="0.5" d="M9.6 13.6053H4.8V17.6842H9.6V13.6053Z" fill="white"/>
<path opacity="0.5" d="M19.2 13.6053H14.4V17.6842H19.2V13.6053Z" fill="white"/>
<defs>
<radialGradient id="paint0_radial_3_403" cx="0" cy="0" r="1" gradientUnits="userSpaceOnUse" gradientTransform="translate(12 1) rotate(90) scale(22)">
<stop stop-color="#F8C98E"/>
<stop offset="1" stop-color="#F1931E"/>
</radialGradient>
<linearGradient id="paint1_linear_3_403" x1="12" y1="1" x2="12" y2="23" gradientUnits="userSpaceOnUse">
<stop stop-color="#F1931E"/>
<stop offset="1" stop-color="#F08705"/>
</linearGradient>
</defs>
</svg>

<svg xmlns="http://www.w3.org/2000/svg" width="24" height="24" fill="none"><path fill="url(#a)" stroke="url(#b)" d="M22.442 10.12v.002a27.43 27.43 0 0 1-.112 4.834 11.376 11.376 0 0 1-.854 3.174c-.794 1.716-2.068 2.891-3.844 3.545-1.494.504-3.03.769-4.608.796h-.017a20.92 20.92 0 0 1-5.322-.401c-1.58-.353-2.827-1.003-3.77-1.935-.942-.931-1.606-2.17-1.976-3.744A18.546 18.546 0 0 1 1.505 12V11.98a17.991 17.991 0 0 1 .5-4.653c.387-1.468 1.039-2.63 1.942-3.513.905-.883 2.085-1.507 3.565-1.859h.003a13.453 13.453 0 0 1 2.1-.341c.138 0 .274-.017.407-.05a31.126 31.126 0 0 1 4.188.014c1.251.098 2.462.369 3.633.813 1.89.78 3.173 2.12 3.87 4.042a13.76 13.76 0 0 1 .729 3.686Z"/><path fill="#fff" d="m9.743 8.71-2.345 4.08h1.35l2.33-4.06h1.858l2.344 4.06h1.344l-2.353-4.08H9.743Z" opacity=".35"/><path fill="#fff" d="M9.6 3c-.443 0-.8.364-.8.816v4.079c0 .452.357.816.8.816h4.8c.443 0 .8-.364.8-.816v-4.08A.806.806 0 0 0 14.4 3H9.6Zm0 .816h4.8v4.079H9.6v-4.08Z"/><path fill="#fff" d="M14.4 3.816H9.6v4.079h4.8v-4.08Z" opacity=".5"/><path fill="#fff" d="M4.8 12.79c-.443 0-.8.363-.8.815v4.08c0 .451.357.815.8.815h4.8c.443 0 .8-.364.8-.816v-4.079a.806.806 0 0 0-.8-.816H4.8Zm0 .815h4.8v4.08H4.8v-4.08Zm9.6-.816c-.443 0-.8.364-.8.816v4.08c0 .451.357.815.8.815h4.8c.443 0 .8-.364.8-.816v-4.079a.806.806 0 0 0-.8-.816h-4.8Zm0 .816h4.8v4.08h-4.8v-4.08Z"/><path fill="#fff" d="M9.6 13.605H4.8v4.08h4.8v-4.08ZM19.2 13.605h-4.8v4.08h4.8v-4.08Z" opacity=".5"/><defs><radialGradient id="a" cx="0" cy="0" r="1" gradientTransform="matrix(0 22 -22 0 12 1)" gradientUnits="userSpaceOnUse"><stop stop-color="#F8C98E"/><stop offset="1" stop-color="#F1931E"/></radialGradient><linearGradient id="b" x1="12" x2="12" y1="1" y2="23" gradientUnits="userSpaceOnUse"><stop stop-color="#F1931E"/><stop offset="1" stop-color="#F08705"/></linearGradient></defs></svg>
